docs/svg/vk.svg

<svg xmlns="http://www.w3.org/2000/svg" width="27" height="25" viewBox="0 0 27 25" fill="none">
  <path fill-rule="evenodd" clip-rule="evenodd" d="M24.1893 6.19332C24.3454 5.62485 24.1893 5.2063 23.4419 5.2063H20.974C20.3459 5.2063 20.0563 5.56757 19.8993 5.96633C19.8993 5.96633 18.6442 9.29393 16.8664 11.4554C16.291 12.0821 16.0296 12.281 15.7156 12.281C15.5586 12.281 15.3226 12.0821 15.3226 11.5127V6.19332C15.3226 5.5103 15.1496 5.2063 14.6269 5.2063H10.7459C10.3538 5.2063 10.1179 5.5228 10.1179 5.8237C10.1179 6.47029 11.0072 6.62022 11.0984 8.44014V12.3945C11.0984 13.2618 10.9546 13.419 10.6406 13.419C9.80386 13.419 7.76841 10.0759 6.5603 6.2506C6.32617 5.50615 6.08925 5.2063 5.45841 5.2063H2.9886C2.28348 5.2063 2.14246 5.56757 2.14246 5.96633C2.14246 6.67644 2.9792 10.2039 6.03943 14.8693C8.07957 18.0553 10.9518 19.7826 13.5682 19.7826C15.1374 19.7826 15.3311 19.3995 15.3311 18.7383V16.3301C15.3311 15.5628 15.4796 15.4097 15.9769 15.4097C16.3436 15.4097 16.9707 15.6096 18.4355 17.1453C20.109 18.9663 20.3845 19.7826 21.3265 19.7826H23.7945C24.4996 19.7826 24.8531 19.3995 24.65 18.6415C24.4262 17.8877 23.6271 16.7934 22.5675 15.4951C21.9921 14.7558 21.1291 13.9594 20.8668 13.5606C20.501 13.0494 20.6054 12.8214 20.8668 12.3664C20.8668 12.3664 23.8753 7.75822 24.1884 6.19332H24.1893Z" fill="white"/>
</svg>

<svg xmlns="http://www.w3.org/2000/svg" width="27" height="25" fill="none"><path fill="#fff" fill-rule="evenodd" d="M24.19 6.193c.155-.568 0-.987-.748-.987h-2.468c-.628 0-.918.362-1.075.76 0 0-1.255 3.328-3.033 5.49-.575.626-.836.825-1.15.825-.157 0-.393-.199-.393-.768v-5.32c0-.683-.173-.987-.696-.987h-3.881a.62.62 0 0 0-.628.618c0 .646.89.796.98 2.616v3.955c0 .867-.143 1.024-.457 1.024-.837 0-2.873-3.343-4.08-7.168-.235-.745-.472-1.045-1.103-1.045h-2.47c-.705 0-.846.362-.846.76 0 .71.837 4.238 3.897 8.903 2.04 3.186 4.913 4.914 7.53 4.914 1.568 0 1.762-.384 1.762-1.045V16.33c0-.767.149-.92.646-.92.367 0 .994.2 2.459 1.735 1.673 1.821 1.948 2.638 2.89 2.638h2.468c.706 0 1.06-.384.856-1.142-.224-.753-1.023-1.848-2.082-3.146-.576-.74-1.439-1.536-1.701-1.934-.366-.512-.262-.74 0-1.195 0 0 3.008-4.608 3.321-6.173z" clip-rule="evenodd"/></svg>
